X:1
T:Herre kär!
T:Aug. Söderman (1832-1876)
T:Herre kär!
T:©PA Aglert Edition may be freely distributed, duplicated, performed and recorded
T:©PA Aglert Edition may be freely distributed, duplicated, performed and recorded
T:©PA Aglert Edition may be freely distributed, duplicated, performed and recorded
T:©PA Aglert Edition may be freely distributed, duplicated, performed and recorded
C:Aug. Söderman (1832-1876)
Z:©PA Aglert
Z:Edition may be freely distributed, duplicated, performed and recorded
%%score [ ( 1 2 ) 3 4 5 ]
L:1/8
Q:1/4=92
M:4/4
K:Eb
V:1 treble nm="S"
V:2 treble 
V:3 treble nm="A"
V:4 treble-8 nm="T"
V:5 bass nm="B"
V:1
"^Andante"!pp! E3 E E3 z | E2 E2 E2 E2 | C4 C4 | C6 =B,2 | C6 z2 |!p! E3 E E3 z | %6
w: Her- re kär!|All vår synd och|skuld Du|på dig|tog!|Je- su huld!|
!<(! E2 E2!<)! G2 G2 |!mf! [GB]6 [GB]2 |!>(! B6!>)! A2 | G6 z2 |!p! [EG]3 [EG] [EG]3 z | %11
w: Du för oss led|dö- dens|bitt- ra|kval!|Je- su god!|
 F2 F2 E2 E2 |"^dim." E6 D2 |!pp! C6 z2 |!f! c3 c c4- | c8 | c3 c c4- | c8 |!ff! c6 c2 | c6 z2 | %20
w: Du för- so- nat|oss med|Gud!|All vår synd||och vår skuld||på dig|tog!|
!fff! g3 g g3 z | g3 g g3 z |!pp! F2 F2 E2 E2 | D3 D D3 z |!ff! g3 g g3 z | g3 g g3 z |!pp! C8- | %27
w: Je- su huld!|Je- su huld!|Du för oss led|dö- dens kval!|Je- su god!|Je- su god!|oss|
 C3 C C3 z | C8- | C8 | =B,8 | C4!<(! C4!<)! | C4!>)!!>(! C4 | C6 z2 |] %34
w: * med Gud!|Je-||su|god! O|Je- su|huld!|
V:2
 x8 | x8 | x8 | x8 | x8 | x8 | x8 | x8 | (G4 F2) D2 | x8 | x8 | x8 | x8 | x8 | x8 | x8 | x8 | x8 | %18
 x8 | x8 | x8 | x8 | x8 | x8 | x8 | x8 | x8 | x8 | x8 | x8 | x8 | x8 | x8 | x8 |] %34
V:3
!pp! C3 C C3 z | C2 C2 C2 C2 | A,4 A,4 | A,4 G,4 | G,6 z2 |!p! C3 C C3 z | %6
w: Her- re kär!|All vår synd och|skuld Du|på dig|tog!|Je- su huld!|
!<(! C2 C2!<)! [CE]2 [CE]2 |!mf! [CE]6 [CE]2 |!>(! [B,D]6!>)! [B,D]2 | [B,E]6 z2 |!p! C3 C C3 z | %11
w: Du för oss led|dö- dens|bitt- ra|kval!|Je- su god!|
 D2 D2 C2 C2 |"^dim." =B,6 B,2 |!pp! C6 z2 |!f! C3 C C4- | C8 | C3 C C4- | C8 |!ff! C6 C2 | C6 z2 | %20
w: Du för- so- nat|oss med|Gud!|All vår synd||och vår skuld||på dig|tog!|
!fff! G3 G G3 z | G3 G G3 z |!pp! C2 C2 C2 C2 | D3 D D3 z |!ff! G3 G G3 z | G3 G G3 z |!pp! z8 | %27
w: Je- su huld!|Je- su huld!|Du för oss led|dö- dens kval!|Je- su god!|Je- su god!||
 A,3 A, A,3 z | G,2 G,2 G,2 G,2 | G,8 | G,8 | G,4!<(! B,4!<)! | =A,4!>(! _A,4!>)! | G,6 z2 |] %34
w: |||||||
V:4
!pp! G3 G G3 z | G2 G2 G2 G2 | F4 F4 | F4 F4 | E6 z2 |!p! [EG]3 [EG] [EG]3 z | %6
w: Her- re kär!|All vår synd och|skuld Du|på dig|tog!|Je- su huld!|
!<(! [EG]2 [EG]2!<)! [EG]2 [EG]2 |!mf! [EA]6 [EA]2 |!>(! A6!>)! F2 | E6 z2 | %10
w: Du för oss led|dö- dens|bitt- ra|kval!|
!p! [FA]3 [FA] [FA]3 z | [FA]2 [FA]2 [FA]2 [FA]2 |"^dim." F6 F2 |!pp! E6 z2 | z8 | %15
w: Je- su god!|Du för- so- nat|oss med|Gud!||
!f! [cd]2 [cd]2 [c=e]2 [ce]2 | [cf]3 z z4 | [c=e]2!<(! [ce]2 f2!<)! f2 | %18
w: All vår synd och|skuld|All vår skuld Du|
!ff! [!courtesy!_e^f]6 [ef]2 | [e^f]6 z2!fff! | g3 g g3 z | g3 g g3 z |!pp! A2 A2 G2 G2 | %23
w: på dig|tog!|Je- su huld!|Je- su huld!|Du för oss led|
 [FA]3 [FA] [FA]3 z!ff! | g3 g g3 z | g3 g g3 z |!pp! [EG]2 [EG]2 [D^F]2 [DF]2 | %27
w: dö- dens kval!|Je- su god!|Je- su god!|Du för- so- nat|
 !courtesy!=F3 F F3 z | =E2 E2 _E2 E2 | D8- | D4 F4 | E4!<(! =E4!<)! | F4!>(! F4!>)! | E6 z2 |] %34
w: oss med Gud!|Du för- so- nat|oss|* med|Gud! O|Je- su|huld!|
V:5
!pp! C,3 C, C,3 z | C,2 C,2 C,2 C,2 | F,,4 F,,4 | G,,4 G,,4 | C,6 z2 |!p! B,,3 B,, B,,3 z | %6
w: Her- re kär!|All vår synd och|skuld Du|på dig|tog!|Je- su huld!|
!<(! B,,2 B,,2!<)! B,,2 B,,2 |!mf! A,,6 A,,2 |!>(! B,,6!>)! B,,2 | E,6 z2 |!p! F,,3 F,, F,,3 z | %11
w: Du för oss led|dö- dens|bitt- ra|kval!|Je- su god!|
 F,,2 F,,2 F,,2 F,,2 |"^dim." G,,6 G,,2 |!pp! A,,6 z2 | z8 |!f! [F,A,]2 [F,A,]2 [G,B,]2 [G,B,]2 | %16
w: Du för- so- nat|oss med|Gud!||All vår synd och|
 A,3 z z4 | [G,B,]2!<(! [G,B,]2 [A,C]2!<)! [A,C]2 |!ff! [=A,C]6 [A,C]2 | [=A,C]6 z2 | %20
w: skuld|All vår skuld Du|på dig|tog!|
!fff! G,3 G, G,3 z | G,3 G, G,3 z |!pp! G,,2 G,,2 G,,2 G,,2 | G,,3 G,, G,,3 z |!ff! G,3 G, G,3 z | %25
w: Je- su huld!|Je- su huld!|Du för oss led|dö- dens kval!|Je- su god!|
 G,3 G, G,3 z |!pp! G,,2 G,,2 G,,2 G,,2 | G,,3 G,, G,,3 z | G,,8- | G,,8 | G,,8 | C,4!<(! C,4!<)! | %32
w: Je- su god!|Du för- so- nat|oss med Gud!|Je-||su|god! O|
 C,3!>(! C, C,4-!>)! | C,6 z2 |] %34
w: Je- su huld!||

